app/dist/common/images/china-pacific-insurance.svg

<svg height="18" viewBox="0 0 18 18" width="18" xmlns="http://www.w3.org/2000/svg"><path d="m0 0h18v18h-18z" fill="#f0f3fa"/><path d="m14 8.5a4.5 4.5 0 0 1 -6 4.24v1.26h-.68v-3.77a2.75 2.75 0 0 0 4.94-1.7 2.77 2.77 0 0 0 -4.94-1.7v-2.28a4.5 4.5 0 0 1 6.68 3.95zm-7.26-3.56a4.5 4.5 0 0 0 -1.74 3.71v5.35h1.74zm4.91 4.06a2.2 2.2 0 0 1 -4.33-.45 2.2 2.2 0 0 1 4.31-.55h-.94a1.3 1.3 0 0 0 -2.5.55c0 .72.59 1.32 1.31 1.32a1.3 1.3 0 0 0 1.23-.87z" fill="#005bac"/></svg>

<!-- by TradingView --><svg width="18" height="18" viewBox="0 0 18 18" xmlns="http://www.w3.org/2000/svg"><path fill="#F0F3FA" d="M0 0h18v18H0z"/><path d="M14 8.5a4.5 4.5 0 0 1-6 4.24V14h-.68v-3.77a2.75 2.75 0 0 0 4.94-1.7 2.77 2.77 0 0 0-4.94-1.7V4.55A4.5 4.5 0 0 1 14 8.5ZM6.74 4.94A4.5 4.5 0 0 0 5 8.65V14h1.74V4.94ZM11.65 9a2.2 2.2 0 0 1-4.33-.45A2.2 2.2 0 0 1 11.63 8h-.94a1.3 1.3 0 0 0-2.5.55c0 .72.59 1.32 1.31 1.32A1.3 1.3 0 0 0 10.73 9h.92Z" fill="#005BAC"/></svg>
